X: 63
M:2/4
L:1/16
K:G
u{c}(BA)|\
.G2.g2 edeg | B2{c}(BA) BcBA | .G2.g2 edeg | A2{B}(AG) AcBA |
.G2.g2 edeg | B2{c}(BA) Bc.d2 | u(e3.f) edef | gedB A2 :|
|:u{c}(BA)|\


